pix_core/f/psd.svg

<svg fill="none" preserveAspectRatio="xMinYMid meet" viewBox="0 0 24 24" xmlns="http://www.w3.org/2000/svg"><g fill="#fff"><path clip-rule="evenodd" d="m4.5 5c0-1.38071 1.11929-2.5 2.5-2.5h6.1716c.663 0 1.2989.26339 1.7677.73223l3.8285 3.82843c.4688.46884.7322 1.10473.7322 1.76777v10.17157c0 1.3807-1.1193 2.5-2.5 2.5h-10c-1.38071 0-2.5-1.1193-2.5-2.5 0-.2761.22386-.5.5-.5s.5.2239.5.5c0 .8284.67157 1.5 1.5 1.5h10c.8284 0 1.5-.6716 1.5-1.5v-10c0-.27614-.2239-.5-.5-.5h-3c-.8284 0-1.5-.67157-1.5-1.5v-3c0-.27614-.2239-.5-.5-.5h-6c-.82843 0-1.5.67157-1.5 1.5v6c0 .2761-.22386.5-.5.5s-.5-.2239-.5-.5zm10 2v-2.79289l3.2929 3.29289h-2.7929c-.2761 0-.5-.22386-.5-.5z" fill-rule="evenodd"/><path d="m9.08018 12.5757c-.23865 0-.46017.0293-.66386.089-.20112.0595-.37832.1455-.52958.2588-.15168.1118-.27102.2478-.35645.4078-.08666.1603-.12922.338-.12922.5309 0 .1973.03997.3752.12316.5306l.00053.001c.08283.1508.19506.2827.33544.3959l.00127.001c.13971.1089.29934.2038.47752.2848.17737.0797.36515.1516.56176.2151.17156.054.3087.1052.41271.1535.10466.0486.18046.0957.23131.14l.00142.0012c.04936.0414.07816.0836.09267.1258l.00138.0036c.01828.0472.02841.1031.02841.169 0 .0777-.01953.1447-.05743.2038l-.00098.0016c-.03398.0552-.09001.103-.17483.1396-.08075.0355-.19076.056-.33473.056-.1182 0-.2254-.012-.32209-.0353-.09182-.0225-.16888-.0582-.23296-.1057-.05969-.0457-.10709-.1061-.14173-.1836-.03376-.0756-.05283-.1731-.05283-.2961 0-.0553-.04477-.1-.1-.1h-.88183c-.05523 0-.1.0447-.1.1 0 .2542.0528.4799.16241.6733.1071.189.25082.3452.42953.4672.17738.1196.37473.2092.58971.2686.21343.0569.4301.0854.64979.0854.24176 0 .4629-.0272.66256-.0828.19948-.0555.37406-.1375.52206-.2475.1489-.1106.264-.2468.3435-.4081.08-.162.1188-.3435.1188-.5423 0-.1873-.0323-.3585-.0992-.5117-.0665-.1523-.1649-.2875-.2936-.4057-.1274-.117-.2841-.2206-.46838-.3118-.18174-.0908-.39113-.1718-.62754-.2433-.1361-.0422-.25475-.085-.35631-.1283-.10082-.0429-.18316-.0876-.2483-.1333-.06383-.0449-.10797-.0902-.13642-.1347-.02489-.0419-.03787-.0891-.03787-.1439 0-.0769.02006-.1433.05938-.2023l.00064-.001c.03832-.0589.09785-.109.18512-.1476l.00145-.0007c.08458-.039.19614-.0611.33896-.0611.14738 0 .26158.026.34654.0708.08927.0463.15171.1077.19205.1837l.0012.0022c.04304.0765.06626.1684.06626.2791 0 .0552.04477.1.1.1h.87302c.0553 0 .1-.0448.1-.1 0-.272-.0703-.517-.2127-.7318-.1399-.2139-.3361-.3805-.58497-.5008-.25047-.1211-.54032-.1799-.86675-.1799z"/><g clip-rule="evenodd" fill-rule="evenodd"><path d="m3.38076 12.6343c-.05523 0-.1.0447-.1.1v4.2656c0 .0552.04477.1.1.1h.87891c.05523 0 .1-.0448.1-.1v-1.4205h.68222c.34452 0 .64557-.0564.89998-.1731.25589-.1166.45532-.284.59377-.5034.13854-.2196.20586-.477.20586-.7682 0-.2878-.06748-.5472-.20475-.7752-.13759-.2286-.33605-.4061-.59159-.533-.25529-.1296-.55758-.1922-.90327-.1922zm1.66113 2.0595h-.68222v-1.171h.68222c.15548 0 .27201.0308.35688.0842.08945.0563.15298.1292.19341.2198.04276.0958.06456.2.06456.3137 0 .1117-.02173.2087-.06304.2929-.03879.0792-.10008.1424-.18832.19-.08654.0447-.20571.0704-.36349.0704z"/><path d="m12.6392 17.1559h.1996c.3022 0 .5816-.0503.8356-.1523.2547-.1036.4748-.2503.6588-.4405.1858-.1921.3279-.421.427-.685.1014-.2651.1512-.5559.1512-.871v-.202c0-.3169-.0497-.6079-.1513-.8712-.099-.264-.2412-.4928-.4269-.6849-.1857-.1918-.4056-.3387-.6587-.4404-.2521-.1041-.5283-.1553-.827-.1553h-1.3174c-.0663 0-.1199.0537-.1199.1199v4.2628c0 .0662.0536.1199.1199.1199h.3221v.0025h.787zm-1.229-4.3827.0017.0117v.0037zm1.1181 3.4578v-2.6498h.3192c.156 0 .2891.0268.4019.0773l.0014.0006c.1123.0487.2068.1213.2845.2192.0779.0983.1387.2224.1802.3755l.0003.0012c.0432.1529.0658.3338.0658.5442v.2079c0 .274-.0399.5017-.1145.6846-.0722.1815-.1769.3139-.3118.4039-.1346.088-.3046.1354-.5165.1354z"/></g></g></svg>

<svg viewBox="0 0 24 24" fill="none" xmlns="http://www.w3.org/2000/svg" preserveAspectRatio="xMinYMid meet">
<path fill-rule="evenodd" clip-rule="evenodd" d="M4.5 5C4.5 3.61929 5.61929 2.5 7 2.5H13.1716C13.8346 2.5 14.4705 2.76339 14.9393 3.23223L18.7678 7.06066C19.2366 7.5295 19.5 8.16539 19.5 8.82843V19C19.5 20.3807 18.3807 21.5 17 21.5H7C5.61929 21.5 4.5 20.3807 4.5 19C4.5 18.7239 4.72386 18.5 5 18.5C5.27614 18.5 5.5 18.7239 5.5 19C5.5 19.8284 6.17157 20.5 7 20.5H17C17.8284 20.5 18.5 19.8284 18.5 19V9C18.5 8.72386 18.2761 8.5 18 8.5H15C14.1716 8.5 13.5 7.82843 13.5 7V4C13.5 3.72386 13.2761 3.5 13 3.5H7C6.17157 3.5 5.5 4.17157 5.5 5V11C5.5 11.2761 5.27614 11.5 5 11.5C4.72386 11.5 4.5 11.2761 4.5 11V5ZM14.5 7V4.20711L17.7929 7.5H15C14.7239 7.5 14.5 7.27614 14.5 7Z" fill="#fff"/>
<path fill="#fff" d="M9.08018 12.5757C8.84153 12.5757 8.62001 12.605 8.41632 12.6647C8.2152 12.7242 8.038 12.8102 7.88674 12.9235C7.73506 13.0353 7.61572 13.1713 7.53029 13.3313C7.44363 13.4916 7.40107 13.6693 7.40107 13.8622C7.40107 14.0595 7.44104 14.2374 7.52423 14.3928L7.52476 14.3938C7.60759 14.5446 7.71982 14.6765 7.8602 14.7897L7.86147 14.7907C8.00118 14.8996 8.16081 14.9945 8.33899 15.0755C8.51636 15.1552 8.70414 15.2271 8.90075 15.2906C9.07231 15.3446 9.20945 15.3958 9.31346 15.4441C9.41812 15.4927 9.49392 15.5398 9.54477 15.5841L9.54619 15.5853C9.59555 15.6267 9.62435 15.6689 9.63886 15.7111L9.64024 15.7147C9.65852 15.7619 9.66865 15.8178 9.66865 15.8837C9.66865 15.9614 9.64912 16.0284 9.61122 16.0875L9.61024 16.0891C9.57626 16.1443 9.52023 16.1921 9.43541 16.2287C9.35466 16.2642 9.24465 16.2847 9.10068 16.2847C8.98248 16.2847 8.87528 16.2727 8.77859 16.2494C8.68677 16.2269 8.60971 16.1912 8.54563 16.1437C8.48594 16.098 8.43854 16.0376 8.4039 15.9601C8.37014 15.8845 8.35107 15.787 8.35107 15.664C8.35107 15.6087 8.3063 15.564 8.25107 15.564H7.36924C7.31401 15.564 7.26924 15.6087 7.26924 15.664C7.26924 15.9182 7.32204 16.1439 7.43165 16.3373C7.53875 16.5263 7.68247 16.6825 7.86118 16.8045C8.03856 16.9241 8.23591 17.0137 8.45089 17.0731C8.66432 17.13 8.88099 17.1585 9.10068 17.1585C9.34244 17.1585 9.56358 17.1313 9.76324 17.0757C9.96272 17.0202 10.1373 16.9382 10.2853 16.8282C10.4342 16.7176 10.5493 16.5814 10.6288 16.4201C10.7088 16.2581 10.7476 16.0766 10.7476 15.8778C10.7476 15.6905 10.7153 15.5193 10.6484 15.3661C10.5819 15.2138 10.4835 15.0786 10.3548 14.9604C10.2274 14.8434 10.0707 14.7398 9.88642 14.6486C9.70468 14.5578 9.49529 14.4768 9.25888 14.4053C9.12278 14.3631 9.00413 14.3203 8.90257 14.277C8.80175 14.2341 8.71941 14.1894 8.65427 14.1437C8.59044 14.0988 8.5463 14.0535 8.51785 14.009C8.49296 13.9671 8.47998 13.9199 8.47998 13.8651C8.47998 13.7882 8.50004 13.7218 8.53936 13.6628L8.54 13.6618C8.57832 13.6029 8.63785 13.5528 8.72512 13.5142L8.72657 13.5135C8.81115 13.4745 8.92271 13.4524 9.06553 13.4524C9.21291 13.4524 9.32711 13.4784 9.41207 13.5232C9.50134 13.5695 9.56378 13.6309 9.60412 13.7069L9.60532 13.7091C9.64836 13.7856 9.67158 13.8775 9.67158 13.9882C9.67158 14.0434 9.71635 14.0882 9.77158 14.0882H10.6446C10.6999 14.0882 10.7446 14.0434 10.7446 13.9882C10.7446 13.7162 10.6743 13.4712 10.5319 13.2564C10.392 13.0425 10.1958 12.8759 9.94693 12.7556C9.69646 12.6345 9.40661 12.5757 9.08018 12.5757Z" fill="#fff"/>
<path fill-rule="evenodd" clip-rule="evenodd" d="M3.38076 12.6343C3.32553 12.6343 3.28076 12.679 3.28076 12.7343V16.9999C3.28076 17.0551 3.32553 17.0999 3.38076 17.0999H4.25967C4.3149 17.0999 4.35967 17.0551 4.35967 16.9999V15.5794H5.04189C5.38641 15.5794 5.68746 15.523 5.94187 15.4063C6.19776 15.2897 6.39719 15.1223 6.53564 14.9029C6.67418 14.6833 6.7415 14.4259 6.7415 14.1347C6.7415 13.8469 6.67402 13.5875 6.53675 13.3595C6.39916 13.1309 6.2007 12.9534 5.94516 12.8265C5.68987 12.6969 5.38758 12.6343 5.04189 12.6343H3.38076ZM5.04189 14.6938H4.35967V13.5228H5.04189C5.19737 13.5228 5.3139 13.5536 5.39877 13.607C5.48822 13.6633 5.55175 13.7362 5.59218 13.8268C5.63494 13.9226 5.65674 14.0268 5.65674 14.1405C5.65674 14.2522 5.63501 14.3492 5.5937 14.4334C5.55491 14.5126 5.49362 14.5758 5.40538 14.6234C5.31884 14.6681 5.19967 14.6938 5.04189 14.6938Z" fill="#fff"/>
<path fill-rule="evenodd" clip-rule="evenodd" d="M12.6392 17.1559H12.8388C13.141 17.1559 13.4204 17.1056 13.6744 17.0036C13.9291 16.9 14.1492 16.7533 14.3332 16.5631C14.519 16.371 14.6611 16.1421 14.7602 15.8781C14.8616 15.613 14.9114 15.3222 14.9114 15.0071V14.8051C14.9114 14.4882 14.8617 14.1972 14.7601 13.9339C14.6611 13.6699 14.5189 13.4411 14.3332 13.249C14.1475 13.0572 13.9276 12.9103 13.6745 12.8086C13.4224 12.7045 13.1462 12.6533 12.8475 12.6533H11.5301C11.4638 12.6533 11.4102 12.707 11.4102 12.7732V17.036C11.4102 17.1022 11.4638 17.1559 11.5301 17.1559H11.8522V17.1584H12.6392V17.1559ZM11.4102 12.7732L11.4119 12.7849V12.7886L11.4102 12.7732ZM12.5283 16.231V13.5812H12.8475C13.0035 13.5812 13.1366 13.608 13.2494 13.6585L13.2508 13.6591C13.3631 13.7078 13.4576 13.7804 13.5353 13.8783C13.6132 13.9766 13.674 14.1007 13.7155 14.2538L13.7158 14.255C13.759 14.4079 13.7816 14.5888 13.7816 14.7992V15.0071C13.7816 15.2811 13.7417 15.5088 13.6671 15.6917C13.5949 15.8732 13.4902 16.0056 13.3553 16.0956C13.2207 16.1836 13.0507 16.231 12.8388 16.231H12.5283Z" fill="#fff"/>
</svg>
